X: 16101
T: Green Forest, The
R: jig
M: 6/8
K: Gmajor
e|dBG GAG|GBd efg|dBG GBd|ecA ABc|
dBG E2 G|DGB ABc|ded B2 A|BGF G2:|
|:d|g3 B2 d|g3 agf|g3 dB/c/d|ecA A2 d|
gfe d3|cBc ABc|ded B2 A|BGF G2:|

